X: 33
M:2/4
L:1/16
K:G
uD2|GDGB dGBd|gfed cBAG|ABcd "4"ecAG|GF"4"AF D2(EF)|
u(FG)|"0"ADFD "0"ADFD|cDBD "0"A2(GA)|BDGD BDGD|dDcD B2D2|


